!!!SOCIAL_FUNCTION: hand game and ghost dance songs
!!!PDT:	1929
!!!LING_GROUP: Caddoan
!!!LANG: Non-Tone
!!!REG: Oklahoma
!!!COM: Anon.
!!!OTL: Hand Game Guessing Song (f)
!!!ODT: <1920//
!!!MPN: Horse Chief [Spotted Horse Chief]
!!!MLC: Pawnee, Oklahoma, United States of America
!! Song was recorded either 1919 or 1920.
!!!AGN: monody
!!!AMT: irregular
!!!RWG: Transcribed pitches, durations, and meters are only approximate.
!! Drum not recorded
**kern
*ICvox
*Imale
*clefF4
*k[b]
*M2/4
*MM96
=1-
8.c
16B
8B
8r
*M3/4
=2
12c
12B
12A
8.A
16E
8.A
16F
=3
8.E
16E
8.E
16E
8E8r
*M2/4
=4
8.c
16A
8A
8r
*M3/4
=5
12c
12B
12A
8.A
16E
8.A
16F
=6
8.E
16E
8.E
16E
8E
8r
*M2/4
=7
8.F
16E
8E
8r
*M3/4
=8
12F
12E
12E
8.E
16E
8E
8r
*M2/4
=9
8.F
16E
8E
8r
*M3/4
=10
12F
12E
12E
8.E
16E
8E
8r
==
*-
!!!HAO: [no description]
!!!HTX: [no free translation]
!!!CNT: Pawnee
!!!TXO: Pawnee
!!!OCY: United States
!!!OCL: Frances Densmore
!!!YOR: Frances Densmore, "Pawnee Music"
!!!YOR: Bulletin 93, page 75, No. 45
!!!PPR: Smithsonian Institution, Bureau of American Ethnology
!!!PPR: Government Printing Office
!!!PDT: 1926
!!!PPP: Washington, DC, United States of America
!!!YEC: Electronic Copyright 2000 David Huron
!!!YER: September 2000
!!!YEN: United States of America
!!!ENC: David Huron
!!!RDT: September 3, 2000
!!!EEV: Release 1.0
!!!AIN: vox
